X: 1
T:Darling Clementine
S:Comando list, 7/97, Peter Freitag
O:American
M:3/4
Q:150
K:D
D2| D2 D4| A,4 F2| F2 F4| D4 D2| F2 A4| A2 G2 F2| E4 E2| F2 G4| G4 F2|
E2 F4| D4 D2| F2 E4| A,4 C2| E2 D4|
